Adwaita++-Dark/actions/22/kdenlive-insert-unicode.svg

<svg height="22" width="22" xmlns="http://www.w3.org/2000/svg">
  <path d="m3 3v11.5a4.5 4.5 0 0 0 9 0v-6.75l4.906 11.25h2.094v-12h-2v7.25l-4.906-11.25h-2.094v11.5a2.5 2.5 0 0 1 -5 0v-11.5zm14 0v2h2v-2z" fill="#e6ddff"/>
</svg>

<svg xmlns="http://www.w3.org/2000/svg" width="22" height="22" version="1.1">
 <defs>
  <style id="current-color-scheme" type="text/css">
   .ColorScheme-Text { color:#E6DDFF; } .ColorScheme-Highlight { color:#3daee9; } .ColorScheme-Background { color:#eff0f1; } .ColorScheme-PositiveText { color:#2ecc71; } .ColorScheme-NeutralText { color:#f67400; } .ColorScheme-NegativeText { color:#da4453; }
  </style>
 </defs>
 <path fill="currentColor" class="ColorScheme-Text" d="M3 3v11.5a4.5 4.5 0 0 0 9 0V7.75L16.906 19H19V7h-2v7.25L12.094 3H10v11.5a2.5 2.5 0 0 1-5 0V3H3zm14 0v2h2V3h-2z"/>
</svg>
